img/icon/menu-icon/support.svg

<svg width="24" height="24" viewBox="0 0 24 24" fill="none" xmlns="http://www.w3.org/2000/svg">
<path d="M18.6667 17.3425H19.7778C21.0056 17.3425 22 16.3616 22 15.1507V11.863C22 10.6521 21.0056 9.67123 19.7778 9.67123H18.6667C18.0533 9.67123 17.5556 10.1622 17.5556 10.7671V16.2466C17.5556 16.8515 18.0533 17.3425 18.6667 17.3425ZM18.6667 17.3425V18.4384C18.6667 19.6493 17.6722 20.6301 16.4444 20.6301H14.0833M19.2222 9.67123V9.12329C19.2222 5.18904 15.9889 2 12 2C8.01111 2 4.77778 5.18904 4.77778 9.12329V9.67123M14.0833 20.6301C14.0833 19.874 13.4611 19.2603 12.6944 19.2603H11.3056C10.5389 19.2603 9.91667 19.874 9.91667 20.6301C9.91667 21.3863 10.5389 22 11.3056 22H12.6944C13.4611 22 14.0833 21.3863 14.0833 20.6301ZM5.33333 17.3425H4.22222C2.99444 17.3425 2 16.3616 2 15.1507V11.863C2 10.6521 2.99444 9.67123 4.22222 9.67123H5.33333C5.94667 9.67123 6.44444 10.1622 6.44444 10.7671V16.2466C6.44444 16.8515 5.94667 17.3425 5.33333 17.3425Z" stroke="#848E9F" stroke-width="1.5" stroke-linecap="round" stroke-linejoin="round"/>
</svg>

<svg width="24" height="24" fill="none" xmlns="http://www.w3.org/2000/svg"><path d="M18.667 17.343h1.11c1.229 0 2.223-.981 2.223-2.192v-3.288c0-1.21-.994-2.192-2.222-2.192h-1.111c-.614 0-1.111.491-1.111 1.096v5.48c0 .605.497 1.096 1.11 1.096zm0 0v1.095c0 1.211-.995 2.192-2.223 2.192h-2.36m5.138-10.959v-.548C19.222 5.19 15.99 2 12 2 8.011 2 4.778 5.189 4.778 9.123v.548m9.305 10.96a1.38 1.38 0 0 0-1.389-1.37h-1.388a1.38 1.38 0 0 0-1.39 1.37A1.38 1.38 0 0 0 11.306 22h1.388a1.38 1.38 0 0 0 1.39-1.37zm-8.75-3.288h-1.11C2.993 17.343 2 16.361 2 15.15v-3.288c0-1.21.994-2.192 2.222-2.192h1.111c.614 0 1.111.491 1.111 1.096v5.48c0 .605-.497 1.096-1.11 1.096z" stroke="#848E9F" stroke-width="1.5" stroke-linecap="round" stroke-linejoin="round"/></svg>
